X:1
T:Improperium Exspectavit
T:Improperium Exspectavit
T:Giovanni Giorgi
T:©2008 Paul R Marchesano May be freely copied for nonprofit use
T:©2008 Paul R Marchesano May be freely copied for nonprofit use
T:©2008 Paul R Marchesano May be freely copied for nonprofit use
T:©2008 Paul R Marchesano May be freely copied for nonprofit use
C:Giovanni Giorgi
Z:©2008 Paul R Marchesano May be freely copied for nonprofit use
%%score [ 1 2 3 4 ]
L:1/8
Q:1/4=96
M:4/4
K:Eb
V:1 treble nm="Soprano" snm="S"
V:2 treble nm="Alto" snm="A"
V:3 treble-8 nm="Tenor" snm="T"
V:4 bass nm="Bass" snm="B"
V:1
 z8 | z4 G4 | c3 d e4- | e2 d2 c4- | c2 BA G4- | G4 c4- | c2 =B=A B3 B | c8 | z2 f4 F2 | c3 d e4- | %10
w: |Im-|pro- * pe-||||* * * * ri-|um|ex- spe-|cta- * *|
 e2 dc d4 | z2 e4 E2 | B3 c d2 d2 | B6 =A2 | B8 | B2 B4 G2 | c8- | c4 c4 | =B4 z2 g2- | %19
w: * * * vit|ex- spe-|cta- * vit cor|me- *||um, et mi-|se-|* ri-|am: et|
 g2 f=e f4- | f4 =e4 | f8 | z8 | _d4 c4 | B4 A4 | G4 B4 | G2 AB c4 | c2 f4 d2 | ec f4 e2 | d4 c4 | %30
w: _ su- * sti-|* nu-|i,||con- tri-|sta- re-|tur, et|non _ _ fu-|it: et non|fu- * * *|* it:|
 g3 g f2 e2 | d2 e2 e4 | d2 f4 ed | e4 c4 | d4 d4 | B4 e4 | c4 f4 | d4 e4 | c6 d2 | e4 g2 g2 | %40
w: con- so- lan- tem|me quae- si-|vi, et non in-|ve- *|ni: et|de- de-|runt in|e- scam|me- am|fel, et in|
 f6 f2 | e8 | d8 | z8 | z2 e4 c2 | f3 e d4- | d2 c2 c2 =B2 | c8- | c4 z2 c2- | c2 B2 _d3 d | %50
w: si- ti|me-|a||po- ta-|ve- runt me|_ a- ce- *|to,|_ po-|* ta- ve- runt|
 c2 B2 A3 G/F/ | G4 F4 | f4 d4 | g3 f e4 | f6 f2 | e6 d2 | e4 z2 e2- | e2 c4 f2- | f2 e2 g4- | %59
w: me a- ce- * *|* to,|po- ta-|ve- * runt|me a-|ce- *|to, po-|* ta- ve-|* runt me|
 g2 f4 e2 | d2 c4 =B2 | c8 |] %62
w: _ a- *|ce- * *|to.|
V:2
 C4 G4 | A4 G3 F | EDC=B, C2 G2- | G2 F2 E2 C2 | D4 E4- | EC G4 G2 | G4 z4 | z4 z2 c2- | %8
w: Im- pro-|pe- * *||||* * * ri-|um|ex-|
 c2 C2 F3 G | A6 G2 | F4 z2 B2- | B2 B,2 EF G2 | G2 G2 F4- | F2 B2 G2 E2 | F8 | G2 G4 B2 | %16
w: * spe- cta- *||vit ex-|* spe- cta- * *|vit cor me-|||um, et mi-|
 E3 F G4- | G2 FE F3 F | G2 =B4 c2 | A6 A2 | G4 c2 c2- | c2 B2 B2 A2 | G2 G2 G2 G2 | A2 B2 c2 C2 | %24
w: se- * *|* * * * ri-|am: et su-|sti- nu-|i, qui si-|* mul me- *|cum con- tri- sta-|re- * * *|
 F2 E4 D2 | E4 z2 B2- | B2 A2 G4 | A4 B4 | c4 =BG c2- | c2 =B2 c4 | z4 c2 B2 | A2 B2 B2 =A2 | %32
w: |tur, et|_ non fu-|it: et|non fu- * *|* * it:|con- so-|lan- tem me quae-|
 B4 G2 B2- | B2 GE F4 | F4 z4 | z2 B4 AG | A4 A2 c2 | B4 B2 B2- | B2 AG A2 A2 | G2 G4 c2 | c4 =B4 | %41
w: si- vi, et|_ non in- ve-|ni:|et de- *|de- runt in|e- scam me-|* * * * am|fel, et in|si- ti|
 c2 C2 G4 | z4 z2 G2- | G2 E2 A4 | G4 c4- | c2 c2 =B4 | z4 z2 G2- | G2 E2 A3 A | G2 c4 A2- | %49
w: me- * a|po-|* ta- ve-||* runt me|po-|* ta- ve- runt|me a- ce-|
 A2 B2 G4- | G4 z4 | z2 c4 A2- | A2 B4 B2 | B4 G2 c2 | c4 B4- | B2 =A2 z2 B2- | B2 G4 c2- | %57
w: * * to,|_|po- ta-|* ve- runt|me _ a-|ce- *|* to, po-|* ta- ve-|
 cB A4 A2 | G6 c2 | A4 G4 | G8- | G8 |] %62
w: * * * runt|me a-|ce- *|to.|_|
V:3
 z8 | z8 | z8 | z8 | G4 c4 | e6 e2 | d2 g4 G2 | c3 d e4 | A4 z2 f2- | f2 F2 B4- | Bcde f4 | %11
w: ||||Im- pro-|pe- ri-|um ex- spe-|cta- * *|vit ex-|* spe- cta-||
 g2 GA B2 e2- | e2 E2 B3 c | d2 d2 e4- | e2 dc d4 | e3 d/c/ B4 | z4 e4- | e2 e2 c3 c | d4 d2 e2 | %19
w: * * * vit ex-|* spe- cta- *|vit cor me-||* * * um,|et|_ mi- se- ri-|am: et su-|
 c6 c2 | c2 g2 g2 g2 | f4 c2 f2- | f2 =ed e4 | f8 | d2 e2 f4 | B2 g4 f2 | =e2 f4 e2 | f2 f2 d4 | %28
w: sti- nu-|i, qui si- mul|me- * *|* * * cum|con-|tri- sta- re-|tur, et non|fu- * *|it: et non|
 c4 d2 ef | g4 e4 | e3 e f2 g2 | a2 g2 e4 | f2 B2 B2 B2 | B6 =A2 | B2 f4 d2- | d2 g4 e2- | %36
w: fu- * * *|* it:|con- so- lan- tem|me quae- si-|vi, et non in-|ve- *|ni: et de-|* de- runt|
 e2 c4 f2- | f2 d2 g3 f | e6 d2 | B4 c2 c2 | f4 f4 | gfed c4- | c4 =B4 | c6 A2 | c6 e2 | d6 g2 | %46
w: _ in e-|* scam me- *|* am|fel, et in|si- ti|me- * * * *|* a|po- ta-|ve- runt|me a-|
 e3 d/c/ d4 | e4 z2 f2- | f2 =e2 f4- | f6 f2 | =e2 g4 f2- | f2 =e2 f2 f2- | f2 d2 f4- | f2 e2 e4- | %54
w: ce- * * *|to, po-|* ta- ve-|* runt|me a- ce-|* * to, po-|* ta- ve-|* runt me|
 e6 d2 | e4 f4 | g4 e4 | c4 f3 f | B6 e2 | c8 | =B2 e2 d4 | =e8 |] %62
w: _ a-|ce- *|to, po-|ta- ve- runt|me a-|ce-||to.|
V:4
 z8 | z8 | z4 C,4 | G,4 A,4 | G,3 F, E,D,C,=B,, | C,6 C,2 | G,8 | z2 C4 C,2 | F,3 G, A,4 | %9
w: ||Im-|pro- pe-||* ri-|um|ex- spe-|cta- * *|
 F,4 E,4 | z2 B,4 B,,2 | E,3 F, G,2 G,2 | E,4 D,4- | D,2 B,,2 C,4 | B,,8 | E,8 | z2 C4 E2 | %17
w: * vit|ex- spe-|cta- * vit cor|me- *|||um,|et mi-|
 A,6 A,2 | G,2 G,4 E,2 | F,6 F,2 | C6 C,2 | D,2 D,2 F,4 | C,4 C4- | C2 B,4 A,2- | A,2 G,2 F,4 | %25
w: se- ri-|am: et su-|sti- nu-|i, qui|si- mul me-|cum con-|* tri- sta-|* * re-|
 E,2 E4 _D2 | C8 | F,4 z2 B,2- | B,2 A,2 G,4- | G,4 C,2 C2- | C2 B,2 A,2 G,2 | F,2 E,2 C4 | %32
w: tur, et non|fu-|it: et|_ non fu-|* it: con-|* so- lan- tem|me quae- si-|
 B,2 B,2 E,3 F, | G,4 F,4 | B,,4 B,4 | G,4 C4 | A,4 F,4 | B,4 G,4 | A,4 F,4 | E,4 E3 E | D6 D2 | %41
w: vi, et non _|in- ve-|ni: et|de- de-|runt in|e- scam|me- am|fel, et in|si- ti|
 C8 | G,8 | z4 F,4- | F,2 E,2 A,3 G, | F,4 G,4 | A,4 F,2 G,2 | C,4 z4 | C4 A,4 | _D3 C B,4 | %50
w: me-|a|po-|* ta- ve- *|runt me|a- ce- *|to,|po- ta-|ve- * runt|
 C4 _D4 | B,2 C2 F,4 | z4 B,4 | G,4 C3 B, | A,4 B,4 | C4 B,4 | E,4 z4 | A,4 F,4 | G,3 F, E,4 | %59
w: me a-|ce- * to,|po-|ta- ve- *|runt me|a- ce-|to,|po- ta-|ve- * runt|
 F,4 C,4 | G,8 | C,8 |] %62
w: me a-|ce-|to.|

